public/images/hand.svg

<svg width="43" height="58" viewBox="0 0 43 58" fill="none" xmlns="http://www.w3.org/2000/svg">
<path d="M2 17.5C2 18.4283 2.36875 19.3185 3.02513 19.9749C3.6815 20.6313 4.57174 21 5.5 21C6.42826 21 7.3185 20.6313 7.97487 19.9749C8.63125 19.3185 9 18.4283 9 17.5C9 16.5717 8.63125 15.6815 7.97487 15.0251C7.3185 14.3687 6.42826 14 5.5 14C4.57174 14 3.6815 14.3687 3.02513 15.0251C2.36875 15.6815 2 16.5717 2 17.5V17.5Z" stroke="#A18129" stroke-width="3" stroke-linecap="round" stroke-linejoin="round"/>
<path d="M25 5.5C25 6.42826 25.3687 7.3185 26.0251 7.97487C26.6815 8.63125 27.5717 9 28.5 9C29.4283 9 30.3185 8.63125 30.9749 7.97487C31.6313 7.3185 32 6.42826 32 5.5C32 4.57174 31.6313 3.6815 30.9749 3.02513C30.3185 2.36875 29.4283 2 28.5 2C27.5717 2 26.6815 2.36875 26.0251 3.02513C25.3687 3.6815 25 4.57174 25 5.5Z" stroke="#A18129" stroke-width="3" stroke-linecap="round" stroke-linejoin="round"/>
<path d="M34 17.5C34 18.4283 34.3687 19.3185 35.0251 19.9749C35.6815 20.6313 36.5717 21 37.5 21C38.4283 21 39.3185 20.6313 39.9749 19.9749C40.6313 19.3185 41 18.4283 41 17.5C41 16.5717 40.6313 15.6815 39.9749 15.0251C39.3185 14.3687 38.4283 14 37.5 14C36.5717 14 35.6815 14.3687 35.0251 15.0251C34.3687 15.6815 34 16.5717 34 17.5Z" stroke="#A18129" stroke-width="3" stroke-linecap="round" stroke-linejoin="round"/>
<path d="M10 5.5C10 6.42826 10.3687 7.3185 11.0251 7.97487C11.6815 8.63125 12.5717 9 13.5 9C14.4283 9 15.3185 8.63125 15.9749 7.97487C16.6313 7.3185 17 6.42826 17 5.5C17 4.57174 16.6313 3.6815 15.9749 3.02513C15.3185 2.36875 14.4283 2 13.5 2C12.5717 2 11.6815 2.36875 11.0251 3.02513C10.3687 3.6815 10 4.57174 10 5.5Z" stroke="#A18129" stroke-width="3" stroke-linecap="round" stroke-linejoin="round"/>
<mask id="mask0_295_2406" style="mask-type:alpha" maskUnits="userSpaceOnUse" x="0" y="15" width="43" height="43">
<rect x="0.1" y="15.5121" width="42.1532" height="42.1532" fill="#D9D9D9" stroke="#A18129" stroke-width="0.2"/>
</mask>
<g mask="url(#mask0_295_2406)">
<path d="M19.5883 52.471C18.8934 52.471 18.2308 52.3019 17.6002 51.9636C16.9697 51.6254 16.4357 51.1474 15.9982 50.5298L6 36.4562L7.00368 35.3533C7.49265 34.7944 8.0717 34.4709 8.74082 34.3827C9.40994 34.2944 10.0147 34.4709 10.5552 34.9121L15.0331 38.4856V20.7061C15.0331 20.2061 15.1811 19.787 15.4771 19.4488C15.773 19.1105 16.1398 18.9414 16.5773 18.9414C17.0148 18.9414 17.3815 19.1105 17.6774 19.4488C17.9734 19.787 18.1214 20.2061 18.1214 20.7061V45.2798L13.8364 41.8386L18.3916 48.2798C18.546 48.4857 18.7262 48.6474 18.9321 48.7651C19.1379 48.8827 19.3567 48.9416 19.5883 48.9416H30.4744C31.3237 48.9416 32.0507 48.596 32.6555 47.9048C33.2603 47.2136 33.5626 46.3827 33.5626 45.4121V33.0591C33.5626 32.5591 33.7106 32.14 34.0066 31.8018C34.3025 31.4635 34.6693 31.2944 35.1068 31.2944C35.5443 31.2944 35.911 31.4635 36.207 31.8018C36.5029 32.14 36.6509 32.5591 36.6509 33.0591V45.4121C36.6509 47.3533 36.0461 49.0151 34.8365 50.3974C33.627 51.7798 32.1729 52.471 30.4744 52.471H19.5883ZM21.2096 38.3533V27.765C21.2096 27.265 21.3576 26.8459 21.6536 26.5076C21.9495 26.1694 22.3163 26.0003 22.7538 26.0003C23.1913 26.0003 23.558 26.1694 23.854 26.5076C24.1499 26.8459 24.2979 27.265 24.2979 27.765V38.3533H21.2096ZM27.3861 38.3533V29.5297C27.3861 29.0297 27.5341 28.6106 27.8301 28.2723C28.126 27.9341 28.4928 27.765 28.9303 27.765C29.3678 27.765 29.7345 27.9341 30.0305 28.2723C30.3264 28.6106 30.4744 29.0297 30.4744 29.5297V38.3533H27.3861Z" fill="#A18129"/>
<path d="M19.5883 52.471C18.8934 52.471 18.2308 52.3019 17.6002 51.9636C16.9697 51.6254 16.4357 51.1474 15.9982 50.5298L6 36.4562L7.00368 35.3533C7.49265 34.7944 8.0717 34.4709 8.74082 34.3827C9.40994 34.2944 10.0147 34.4709 10.5552 34.9121L15.0331 38.4856V20.7061C15.0331 20.2061 15.1811 19.787 15.4771 19.4488C15.773 19.1105 16.1398 18.9414 16.5773 18.9414C17.0148 18.9414 17.3815 19.1105 17.6774 19.4488C17.9734 19.787 18.1214 20.2061 18.1214 20.7061V45.2798L13.8364 41.8386L18.3916 48.2798C18.546 48.4857 18.7262 48.6474 18.9321 48.7651C19.1379 48.8827 19.3567 48.9416 19.5883 48.9416H30.4744C31.3237 48.9416 32.0507 48.596 32.6555 47.9048C33.2603 47.2136 33.5626 46.3827 33.5626 45.4121V33.0591C33.5626 32.5591 33.7106 32.14 34.0066 31.8018C34.3025 31.4635 34.6693 31.2944 35.1068 31.2944C35.5443 31.2944 35.911 31.4635 36.207 31.8018C36.5029 32.14 36.6509 32.5591 36.6509 33.0591V45.4121C36.6509 47.3533 36.0461 49.0151 34.8365 50.3974C33.627 51.7798 32.1729 52.471 30.4744 52.471H19.5883ZM21.2096 38.3533V27.765C21.2096 27.265 21.3576 26.8459 21.6536 26.5076C21.9495 26.1694 22.3163 26.0003 22.7538 26.0003C23.1913 26.0003 23.558 26.1694 23.854 26.5076C24.1499 26.8459 24.2979 27.265 24.2979 27.765V38.3533H21.2096ZM27.3861 38.3533V29.5297C27.3861 29.0297 27.5341 28.6106 27.8301 28.2723C28.126 27.9341 28.4928 27.765 28.9303 27.765C29.3678 27.765 29.7345 27.9341 30.0305 28.2723C30.3264 28.6106 30.4744 29.0297 30.4744 29.5297V38.3533H27.3861Z" stroke="#A18129"/>
</g>
</svg>

<svg width="43" height="58" fill="none" xmlns="http://www.w3.org/2000/svg"><path d="M2 17.5a3.5 3.5 0 1 0 7 0 3.5 3.5 0 0 0-7 0v0zM25 5.5a3.5 3.5 0 1 0 7 0 3.5 3.5 0 0 0-7 0zM34 17.5a3.5 3.5 0 1 0 7 0 3.5 3.5 0 0 0-7 0zM10 5.5a3.5 3.5 0 1 0 7 0 3.5 3.5 0 0 0-7 0z" stroke="#A18129" stroke-width="3" stroke-linecap="round" stroke-linejoin="round"/><mask id="a" style="mask-type:alpha" maskUnits="userSpaceOnUse" x="0" y="15" width="43" height="43"><path fill="#D9D9D9" stroke="#A18129" stroke-width=".2" d="M.1 15.512h42.153v42.153H.1z"/></mask><g mask="url(#a)"><path d="M19.588 52.471c-.695 0-1.357-.17-1.988-.507a4.635 4.635 0 0 1-1.602-1.434L6 36.456l1.004-1.103c.489-.559 1.068-.882 1.737-.97.669-.089 1.274.088 1.814.53l4.478 3.573v-17.78c0-.5.148-.919.444-1.257a1.404 1.404 0 0 1 1.1-.508c.438 0 .804.17 1.1.508.296.338.444.757.444 1.257V45.28l-4.285-3.441 4.556 6.44c.154.207.334.368.54.486.206.118.425.177.656.177h10.886c.85 0 1.577-.346 2.182-1.037.604-.691.907-1.522.907-2.493V33.06c0-.5.148-.919.444-1.257a1.404 1.404 0 0 1 1.1-.508c.437 0 .804.17 1.1.508.296.338.444.757.444 1.257v12.353c0 1.941-.605 3.603-1.815 4.985-1.209 1.383-2.663 2.074-4.362 2.074H19.588zm1.622-14.118V27.765c0-.5.148-.92.444-1.257a1.404 1.404 0 0 1 1.1-.508c.437 0 .804.17 1.1.508.296.338.444.757.444 1.257v10.588H21.21zm6.176 0V29.53c0-.5.148-.92.444-1.258a1.404 1.404 0 0 1 1.1-.507c.438 0 .805.17 1.1.507.296.339.444.758.444 1.258v8.823h-3.088z" fill="#A18129"/><path d="M19.588 52.471c-.695 0-1.357-.17-1.988-.507a4.635 4.635 0 0 1-1.602-1.434L6 36.456l1.004-1.103c.489-.559 1.068-.882 1.737-.97.669-.089 1.274.088 1.814.53l4.478 3.573v-17.78c0-.5.148-.919.444-1.257a1.404 1.404 0 0 1 1.1-.508c.438 0 .804.17 1.1.508.296.338.444.757.444 1.257V45.28l-4.285-3.441 4.556 6.44c.154.207.334.368.54.486.206.118.425.177.656.177h10.886c.85 0 1.577-.346 2.182-1.037.604-.691.907-1.522.907-2.493V33.06c0-.5.148-.919.444-1.257a1.404 1.404 0 0 1 1.1-.508c.437 0 .804.17 1.1.508.296.338.444.757.444 1.257v12.353c0 1.941-.605 3.603-1.815 4.985-1.209 1.383-2.663 2.074-4.362 2.074H19.588zm1.622-14.118V27.765c0-.5.148-.92.444-1.257a1.404 1.404 0 0 1 1.1-.508c.437 0 .804.17 1.1.508.296.338.444.757.444 1.257v10.588H21.21zm6.176 0V29.53c0-.5.148-.92.444-1.258a1.404 1.404 0 0 1 1.1-.507c.438 0 .805.17 1.1.507.296.339.444.758.444 1.258v8.823h-3.088z" stroke="#A18129"/></g></svg>
